components/ui-node-icon/src/transpose/transpose.large.svg

<svg width="32" height="32" viewBox="0 0 32 32" fill="none" xmlns="http://www.w3.org/2000/svg">
  <path fill-rule="evenodd" clip-rule="evenodd" d="M3 6C3 5.37868 3.18888 4.80147 3.51235 4.32267C4.05148 3.52467 4.96447 3 6 3H8H24C25.6569 3 27 4.34315 27 6V8C27 8.55228 26.5523 9 26 9H15V12C15 13.6569 13.6569 15 12 15H9V27H6C4.34315 27 3 25.6569 3 24V9V6Z" fill="var(--tbl--colors--icons--transformation--tertiary)"/>
  <path fill-rule="evenodd" clip-rule="evenodd" d="M21 3H15V9H21V3ZM9 15H3V21H9V15Z" fill="var(--tbl--colors--icons--transformation--secondary)"/>
  <path opacity="0.5" fill-rule="evenodd" clip-rule="evenodd" d="M15 3H9V9L3 9V15H9L9 9H15V3Z" fill="var(--tbl--colors--icons--transformation--primary)"/>
  <path fill-rule="evenodd" clip-rule="evenodd" d="M9 9L3 9V6C3 4.34315 4.34315 3 6 3H9L9 9ZM28.2071 11.7929C27.8166 11.4024 27.1834 11.4024 26.7929 11.7929L24.7929 13.7929C24.4024 14.1834 24.4024 14.8166 24.7929 15.2071C25.1834 15.5976 25.8166 15.5976 26.2071 15.2071L26.444 14.9702C26.2322 17.6493 25.4135 19.8414 23.8803 21.4307C22.4367 22.9272 20.2533 23.9988 17.0508 24.3634L17.2071 24.2071C17.5976 23.8166 17.5976 23.1834 17.2071 22.7929C16.8166 22.4024 16.1834 22.4024 15.7929 22.7929L13.7929 24.7929C13.79 24.7958 13.7872 24.7987 13.7843 24.8016C13.6084 24.9818 13.5 25.2282 13.5 25.5C13.5 25.7763 13.612 26.0264 13.7932 26.2074L15.7929 28.2071C16.1834 28.5976 16.8166 28.5976 17.2071 28.2071C17.5976 27.8166 17.5976 27.1834 17.2071 26.7929L16.8122 26.398C20.5881 26.0497 23.3927 24.8168 25.3197 22.8193C27.3234 20.7423 28.2526 17.9682 28.4561 14.8704L28.7929 15.2071C29.1834 15.5976 29.8166 15.5976 30.2071 15.2071C30.5976 14.8166 30.5976 14.1834 30.2071 13.7929L28.2071 11.7929Z" fill="var(--tbl--colors--icons--transformation--primary)"/>
</svg>

<svg xmlns="http://www.w3.org/2000/svg" width="32" height="32" fill="none" viewBox="0 0 32 32">
  <path fill="var(--tbl--colors--icons--transformation--tertiary)" fill-rule="evenodd" d="M3 6a2.997 2.997 0 0 1 3-3h18a3 3 0 0 1 3 3v2a1 1 0 0 1-1 1H15v3a3 3 0 0 1-3 3H9v12H6a3 3 0 0 1-3-3V6Z" clip-rule="evenodd"/>
  <path fill="var(--tbl--colors--icons--transformation--secondary)" fill-rule="evenodd" d="M21 3h-6v6h6V3ZM9 15H3v6h6v-6Z" clip-rule="evenodd"/>
  <path fill="var(--tbl--colors--icons--transformation--primary)" fill-rule="evenodd" d="M15 3H9v6H3v6h6V9h6V3Z" clip-rule="evenodd" opacity=".5"/>
  <path fill="var(--tbl--colors--icons--transformation--primary)" fill-rule="evenodd" d="M9 9H3V6a3 3 0 0 1 3-3h3v6Zm19.207 2.793a1 1 0 0 0-1.414 0l-2 2a1 1 0 0 0 1.414 1.414l.237-.237c-.212 2.68-1.03 4.871-2.564 6.46-1.443 1.497-3.627 2.569-6.83 2.933l.157-.156a1 1 0 0 0-1.414-1.414l-2 2-.009.009a.997.997 0 0 0 .01 1.405l1.999 2a1 1 0 0 0 1.414-1.414l-.395-.395c3.776-.348 6.58-1.581 8.508-3.579 2.003-2.077 2.933-4.85 3.136-7.949l.337.337a1 1 0 0 0 1.414-1.414l-2-2Z" clip-rule="evenodd"/>
</svg>
